frontend/public/svg/interface/switch.svg

<svg width="175" height="143" viewBox="0 0 175 143" fill="none" xmlns="http://www.w3.org/2000/svg">
<g clip-path="url(#clip0)">
<path d="M174.473 73.5416C174.473 71.7457 174.42 69.9146 174.367 68.1921C174.204 62.8544 174.038 57.5166 173.87 52.1784C173.632 44.5279 173.397 36.8766 173.163 29.2253L173.069 26.1181C172.87 19.607 172.665 12.8746 172.552 6.25369C172.583 5.2993 172.348 4.35513 171.874 3.52801C171.399 2.70088 170.703 2.02373 169.865 1.57356C168.516 0.871322 167.035 0.463063 165.518 0.375127C162.436 0.168427 159.291 0.100426 156.168 0.175176C140.635 0.545026 125.336 0.955341 110.695 1.38694C107.871 1.47079 105.019 1.78233 102.261 2.08328L102.067 2.10487C99.9709 2.33302 98.7626 3.59992 98.5737 5.75857C98.4379 7.29841 98.2936 8.83794 98.1494 10.3771C97.7516 14.6249 97.3402 19.0181 97.1105 23.3556C96.6099 32.8144 96.1791 42.4344 95.7625 51.7378C95.5711 56.0322 95.377 60.3271 95.1804 64.6223C95.1571 64.9691 95.1157 65.3146 95.0575 65.6571C95.0497 65.7097 95.0413 65.7617 95.0335 65.8157L78.9919 66.7042C78.9706 66.6393 78.9505 66.5827 78.9311 66.5275C78.8651 66.3675 78.8173 66.2011 78.7881 66.0308C78.499 60.0075 78.2131 53.9843 77.9311 47.961C77.5727 40.3399 77.2099 32.7194 76.8431 25.0992C76.4718 17.4409 76.1316 11.0977 75.7687 5.13524C75.6025 2.39874 74.64 1.25849 71.9562 0.618242C70.8314 0.349701 69.68 0.211171 68.5234 0.20501C67.1586 0.19786 65.7938 0.180015 64.4285 0.163115C60.4278 0.113715 56.2899 0.0639344 52.2219 0.260234C46.2244 0.549484 40.1312 0.90973 34.2397 1.25618C26.1245 1.73588 17.7325 2.23135 9.47618 2.5492C4.36612 2.7442 1.8584 5.08402 1.09771 10.3568C0.948935 11.2659 0.864944 12.1849 0.846617 13.106C0.846617 16.0527 0.837366 18.9991 0.818823 21.9457C0.785834 29.3226 0.750945 36.9497 0.924945 44.452C1.06013 50.3078 1.32081 56.2546 1.57179 62.0064C1.88356 69.1287 2.20568 76.4933 2.29301 83.7343C2.43531 95.4486 2.32735 107.366 2.22321 118.89C2.18008 123.607 2.14272 128.322 2.11124 133.038C2.08472 137.645 3.25032 138.953 7.77823 139.399C8.1922 139.441 8.6087 139.453 9.02527 139.464C9.28401 139.472 9.53821 139.479 9.79372 139.494C11.4755 139.593 13.1573 139.677 14.8391 139.76C18.5054 139.942 22.2958 140.13 25.9996 140.492C37.8899 141.654 49.9974 141.896 61.7111 142.129C65.2965 142.2 68.8818 142.271 72.4653 142.368C72.6923 142.374 72.9323 142.379 73.18 142.379C73.6412 142.383 74.1024 142.357 74.5598 142.301C75.1684 142.261 75.7622 142.096 76.3056 141.819C76.8489 141.541 77.3302 141.156 77.7209 140.685C78.0456 140.219 78.272 139.691 78.3865 139.134C78.501 138.577 78.501 138.002 78.3871 137.445C77.3308 130.204 77.7273 122.811 78.1103 115.661C78.2338 113.356 78.3612 110.973 78.4389 108.628C78.5294 105.873 78.6562 103.071 78.7791 100.361C79.1407 92.3662 79.5145 84.106 79.0197 75.9395C79.0184 75.4961 79.0721 75.0541 79.1808 74.6245C79.1976 74.54 79.2144 74.4536 79.2312 74.3678L94.8447 73.6749C94.8615 73.7568 94.8777 73.8335 94.8932 73.9062C94.9585 74.1702 95.0019 74.4392 95.0226 74.7103C95.1183 77.8355 95.2062 80.9607 95.2852 84.0872C95.454 90.4039 95.6286 96.9357 95.9048 103.358C96.2774 112.035 96.9023 121.062 97.4049 128.318C97.5821 130.788 97.9476 133.241 98.4967 135.654C99.2406 138.952 100.596 139.506 103.553 139.554C110.569 139.675 117.583 139.806 124.597 139.951C128.311 140.026 132.026 140.099 135.74 140.171C136.407 140.183 137.075 140.198 137.746 140.213C139.816 140.26 141.953 140.309 144.063 140.272C149.722 140.17 155.473 140.026 161.035 139.886L166.933 139.743C167.741 139.743 168.548 139.701 169.352 139.616C172.77 139.194 173.759 138.232 174.165 134.936C174.405 132.923 174.521 130.898 174.512 128.871C174.525 110.521 174.506 91.8644 174.488 73.8224L174.473 73.5416ZM118.628 73.0132C118.455 73.3557 118.245 73.6774 118.003 73.9745C116.968 75.1341 115.893 76.293 114.851 77.4137C114.175 78.1404 113.501 78.869 112.83 79.5996C110.825 81.7934 110.545 84.1788 112.097 85.824C112.419 86.1815 112.811 86.4682 113.248 86.6677C113.685 86.8673 114.157 86.9752 114.637 86.9843H114.691C115.961 86.9843 117.296 86.3206 118.555 85.0622C119.59 84.0287 120.555 82.9094 121.488 81.8271L121.711 81.5671C122.953 80.128 124.191 78.6837 125.422 77.2336C126.491 75.9817 127.561 74.7311 128.632 73.4831C129.966 71.9335 130.528 70.6316 130.401 69.3842C130.271 68.1531 129.487 67.0188 127.921 65.815C124.029 62.825 120.053 59.8049 116.209 56.887L113.642 54.937C111.684 53.4498 110.096 53.3776 108.924 54.7263C107.752 56.0751 107.901 57.9147 109.306 59.5416C110.231 60.563 111.225 61.5189 112.282 62.4019C112.516 62.6073 112.75 62.8128 112.983 63.0182L113.357 63.3432C113.974 63.8512 114.542 64.4168 115.053 65.0331L103.951 65.4647C103.346 59.4885 104.256 16.1604 105.131 9.6624L165.284 8.51346L165.315 8.70898C165.414 9.24022 165.476 9.77751 165.5 10.3175C165.831 27.3089 166.148 44.3008 166.454 61.2936C166.544 66.3714 166.631 71.4492 166.713 76.5264C166.833 83.8896 166.962 91.2522 167.101 98.6141C167.185 102.904 167.304 107.269 167.42 111.488C167.521 115.193 167.623 118.893 167.703 122.596C167.75 124.771 167.738 126.934 167.726 129.223C167.722 130.072 167.716 130.933 167.715 131.811H105.709L103.351 73.6521C108.426 73.1236 113.53 72.9105 118.632 73.0132H118.628ZM10.4801 103.923L10.4652 99.9771C10.4361 91.6499 10.4063 83.0387 10.1146 74.5738C9.91215 68.714 9.5919 62.764 9.28271 57.0096C8.73031 46.7396 8.15921 36.1252 8.24072 25.6673C8.26788 22.1255 8.3151 18.5822 8.36362 14.9227L8.4219 10.3784C17.3722 10.4213 26.3678 9.98395 35.0716 9.5621C46.2057 9.02455 57.7111 8.46796 69.059 8.92101L70.0293 66.7465C69.167 66.8037 68.3132 66.8635 67.4672 66.9252C65.1387 67.0923 62.9395 67.2502 60.7105 67.3152C57.8792 67.3971 54.9962 67.4309 52.2083 67.4634C49.7736 67.4921 47.2567 67.5213 44.7793 67.5824C43.3851 67.5752 41.9993 67.7982 40.6766 68.2409C40.2034 68.4742 39.7932 68.8187 39.481 69.2451C39.1687 69.6715 38.9634 70.1674 38.8828 70.6907C38.7773 71.6163 39.8401 72.746 40.5801 73.0275C41.7873 73.4675 43.0577 73.7093 44.3416 73.7424C50.9064 73.9654 57.581 74.1403 64.0358 74.3086L66.5713 74.3736C67.4613 74.397 68.341 74.3912 69.3585 74.3853L70.3547 74.3801C70.3786 74.7051 70.4038 75.0203 70.4284 75.333C70.5125 76.3847 70.5914 77.3773 70.5914 78.3607C70.5914 84.5273 70.5869 90.6932 70.5772 96.8591C70.5655 105.691 70.5629 114.525 70.5694 123.358C70.5746 125.932 70.6832 128.474 70.7984 131.165C70.8424 132.198 70.887 133.245 70.9277 134.313C50.3131 134.447 29.7197 133.066 10.3585 131.637V131.15C10.3585 130.389 10.3585 129.655 10.3585 128.918C10.3727 126.318 10.3912 123.717 10.414 121.114C10.4567 115.478 10.5027 109.655 10.4801 103.923Z" fill="black"/>
</g>
<defs>
<clipPath id="clip0">
<rect width="174" height="143" fill="white" transform="translate(0.777344)"/>
</clipPath>
</defs>
</svg>

<svg xmlns="http://www.w3.org/2000/svg" width="175" height="143" fill="none" viewBox="0 0 175 143"><g clip-path="url(#a)"><path fill="#000" d="M174.473 73.542c0-1.796-.053-3.627-.106-5.35q-.245-8.006-.497-16.014-.357-11.475-.707-22.953l-.094-3.107c-.199-6.511-.404-13.243-.517-19.864a5.15 5.15 0 0 0-.678-2.726 5.1 5.1 0 0 0-2.009-1.954 10.8 10.8 0 0 0-4.347-1.199 103 103 0 0 0-9.35-.2c-15.533.37-30.832.78-45.473 1.212-2.824.084-5.676.395-8.434.696l-.194.022c-2.096.228-3.304 1.495-3.493 3.654q-.206 2.31-.425 4.618c-.397 4.248-.809 8.641-1.038 12.979-.501 9.458-.932 19.078-1.349 28.382q-.286 6.442-.582 12.884a10 10 0 0 1-.123 1.035l-.023.159-16.042.888q-.031-.095-.06-.176a2.3 2.3 0 0 1-.144-.497q-.434-9.036-.857-18.07-.537-11.432-1.088-22.862a1598 1598 0 0 0-1.074-19.964C75.603 2.4 74.64 1.258 71.956.618a15 15 0 0 0-3.433-.413C67.16.198 65.793.18 64.43.163c-4.001-.05-8.14-.1-12.207.097-5.998.29-12.09.65-17.982.996-8.116.48-16.507.975-24.764 1.293-5.11.195-7.618 2.535-8.378 7.808q-.225 1.366-.251 2.749 0 4.42-.028 8.84C.786 29.323.75 36.95.925 44.452c.135 5.856.396 11.803.647 17.554.312 7.123.634 14.487.721 21.728.142 11.715.034 23.632-.07 35.156q-.064 7.075-.112 14.148c-.026 4.607 1.14 5.915 5.667 6.361.414.042.83.054 1.247.065.259.008.513.015.769.03 1.681.099 3.363.183 5.045.266 3.666.182 7.457.37 11.16.732 11.89 1.162 23.998 1.404 35.712 1.637 3.585.071 7.17.142 10.754.239q.342.01.715.011.692.006 1.38-.078a4.5 4.5 0 0 0 3.16-1.616 4.2 4.2 0 0 0 .667-3.24c-1.056-7.241-.66-14.634-.277-21.784.124-2.305.251-4.688.329-7.033.09-2.755.217-5.557.34-8.267.362-7.995.736-16.255.24-24.422a5.3 5.3 0 0 1 .162-1.314l.05-.257 15.614-.693.048.231q.099.397.13.804.143 4.688.262 9.377c.169 6.317.344 12.849.62 19.271.372 8.677.997 17.704 1.5 24.96.177 2.47.543 4.923 1.092 7.336.744 3.298 2.099 3.852 5.056 3.9q10.524.18 21.044.397 5.572.112 11.143.22 1 .019 2.006.042c2.07.047 4.207.096 6.317.059 5.659-.102 11.41-.246 16.972-.386l5.898-.143q1.213 0 2.419-.127c3.418-.422 4.407-1.384 4.813-4.68.24-2.013.356-4.038.347-6.065.013-18.35-.006-37.007-.024-55.049zm-55.845-.529a5.3 5.3 0 0 1-.625.962 231 231 0 0 1-3.152 3.439 468 468 0 0 0-2.021 2.186c-2.005 2.193-2.285 4.579-.733 6.224a3.5 3.5 0 0 0 2.54 1.16h.054c1.27 0 2.605-.663 3.864-1.922 1.035-1.033 2-2.153 2.933-3.235l.223-.26q1.864-2.158 3.711-4.333 1.603-1.879 3.21-3.75c1.334-1.55 1.896-2.852 1.769-4.1-.13-1.23-.914-2.365-2.48-3.569-3.892-2.99-7.868-6.01-11.712-8.928l-2.567-1.95c-1.958-1.487-3.546-1.56-4.718-.21-1.172 1.348-1.023 3.188.382 4.815a30 30 0 0 0 2.976 2.86l.701.616.374.325a12.6 12.6 0 0 1 1.696 1.69l-11.102.432c-.605-5.977.305-49.305 1.18-55.803l60.153-1.149.031.196q.149.798.185 1.609.496 25.486.954 50.976.136 7.616.259 15.232.18 11.046.388 22.088c.084 4.29.203 8.655.319 12.874.101 3.705.203 7.405.283 11.108.047 2.175.035 4.338.023 6.627q-.008 1.272-.011 2.588h-62.006l-2.358-58.159a124 124 0 0 1 15.281-.639zM10.48 103.923l-.015-3.946c-.029-8.327-.059-16.938-.35-25.403-.203-5.86-.523-11.81-.832-17.564C8.73 46.74 8.159 36.125 8.24 25.667c.027-3.542.074-7.085.123-10.744l.058-4.545c8.95.043 17.946-.394 26.65-.816 11.134-.537 22.64-1.094 33.987-.641l.97 57.826q-1.293.086-2.562.178c-2.328.167-4.527.325-6.756.39-2.832.082-5.715.116-8.503.148-2.434.03-4.951.058-7.429.12a12.7 12.7 0 0 0-4.102.658 3.28 3.28 0 0 0-1.794 2.45c-.106.925.957 2.055 1.697 2.337a11.9 11.9 0 0 0 3.762.714c6.564.223 13.239.398 19.694.567l2.535.065c.89.023 1.77.017 2.788.011l.996-.005.073.953c.085 1.052.163 2.044.163 3.028q0 9.249-.014 18.498-.017 13.249-.008 26.499c.006 2.574.114 5.116.23 7.807q.066 1.548.129 3.148c-20.615.134-41.208-1.247-60.57-2.676v-2.719q.022-3.9.056-7.804c.043-5.636.089-11.459.066-17.191"/></g><defs><clipPath id="a"><path fill="#fff" d="M.777 0h174v143h-174z"/></clipPath></defs></svg>
